cinnamon-shell/src/assets/colorable-assets/switch/switch-off.svg

<svg width="50" height="20" xmlns="http://www.w3.org/2000/svg">
  <g>
    <rect x="-50" y="0" width="50" height="20" rx="12.5" ry="12.5"
      style="fill:#ffff01;fill-opacity:1;stroke:none" transform="scale(-1,1)"/>
    <rect rx="8" ry="8" x="-18" y="3" width="16" height="16"
      style="fill:#000000;fill-opacity:0.2;stroke:none" transform="scale(-1,1)" />
    <rect  rx="8" ry="8" x="-18" y="2" width="16" height="16"
      style="fill:#00ff01;fill-opacity:1;stroke:none" transform="scale(-1,1)" />
    <path
      d="m 37.003701,6.0002368 h 0.999605 c 0.01333,-1.2e-4 0.02133,-4.667e-4 0.03066,0 0.254832,0.010666 0.509665,0.1285295 0.687195,0.312484 l 2.280425,2.2811863 2.311484,-2.2811863 c 0.265629,-0.2304865 0.44649,-0.3054842 0.687329,-0.312484 H 45 v 0.9999703 c 0,0.2864582 -0.03466,0.5506242 -0.249901,0.7499783 l -2.28043,2.2811726 2.249109,2.249933 C 44.90697,12.469459 45,12.734731 45,13.00003 V 14 h -0.999604 c -0.265229,-1.3e-5 -0.530457,-0.09306 -0.718515,-0.281245 l -2.280298,-2.281186 -2.280429,2.281186 C 38.533096,13.906936 38.267867,14 38.002772,14 h -0.999604 v -0.99997 c 0,-0.265286 0.09329,-0.530571 0.281089,-0.718739 L 39.564553,10.031358 37.284257,7.7501854 C 37.073541,7.5555512 36.981177,7.2809455 37.003168,7.0002071 V 6.0002368 Z"
      style="color:#fff;opacity:1;fill:#fff;fill-opacity:1" />
  </g>
</svg>

<svg version="1.1" viewBox="0 0 50 20" xmlns="http://www.w3.org/2000/svg">
 <rect width="50" height="20" rx="12.5" ry="12.5" fill="#ffff01"/>
 <rect x="2" y="3" width="16" height="16" rx="8" ry="8" fill-opacity=".2"/>
 <rect x="2" y="2" width="16" height="16" rx="8" ry="8" fill="#00ff01"/>
 <path d="m37.004 6.0002h0.9996c0.01333-1.2e-4 0.02133-4.667e-4 0.03066 0 0.25483 0.010666 0.50966 0.12853 0.6872 0.31248l2.2804 2.2812 2.3115-2.2812c0.26563-0.23049 0.44649-0.30548 0.68733-0.31248h0.9996v0.99997c0 0.28646-0.03466 0.55062-0.2499 0.74998l-2.2804 2.2812 2.2491 2.2499c0.18819 0.18817 0.28122 0.45344 0.28122 0.71874v0.99997h-0.9996c-0.26523-1.3e-5 -0.53046-0.09306-0.71852-0.28124l-2.2803-2.2812-2.2804 2.2812c-0.18806 0.18818-0.45329 0.28124-0.71838 0.28124h-0.9996v-0.99997c0-0.26529 0.09329-0.53057 0.28109-0.71874l2.2803-2.2499-2.2803-2.2812c-0.21072-0.19463-0.30308-0.46924-0.28109-0.74998v-0.99997z" color="#fff" fill="#fff"/>
</svg>
